X:40
T:CURRAGH3- The Winter it is Past
S:The Scots Musical Museum, #200, 1788
Q:1/4=120
L:1/8
M:2/4
K:C
F3/2G/|A3/2 G/ A c|F2f d |c A G F|G2 G A| C D E|\
(fe) (d^c)|d4{BAG}|Fe c3/2B/|A c d e|f3 e/d/|c A G F|\
G2 F3/2G/|A2 A3/2 d/|(cB A G|F4{DCD}|C2|]
